!!!OTL: DER MAI DER MAI DER LUSTIGE MAI
!!!ARE: Europa, Mitteleuropa, Deutschland, Rheinland, Siebengebirge
!!!SCT: E0962
!!!YEM: Copyright 1995, estate of Helmut Schaffrath.
**kern
*ICvox
*Ivox
*M4/4
*k[f#]
*G:
{8d
=1
4.g
8a
4b
4dd
=2
4b
8a
8b
4g
8r}
{8a
=3
4b
4dd
4ee
4dd
=4
4.a
8dd
4dd
8r}
{8d
=5
4g
8g
8a
4b
4dd
=6
8dd
8cc
8b
8a
4b
8r}
{8dd
=7
4ee
8dd
8cc
8b
8a
8g
8b
=8
2a
4g
4r}
=9
{4.b
8a
4g
4a
=10
8b
8a
8b
8cc
4dd
8r}
{8dd
=11
4ee
8dd
8cc
8b
8a
8g
8b
=12
2a
4g
8r}
==
!!!AGN: Tanz - Lied, Reigen, Mai - Tanz
!!!ONB: ESAC (Essen Associative Code) Database: ERK2
!!!AMT: simple quadruple
!!!AIN: vox
!!!EED: Helmut Schaffrath
!!!EEV: 1.0
*-
